images/vk.svg

<svg width="28" height="28" fill="none" xmlns="http://www.w3.org/2000/svg"><path fill-rule="evenodd" clip-rule="evenodd" d="M26 14c0 6.6274-5.3726 12-12 12-6.62742 0-12-5.3726-12-12C2 7.37258 7.37258 2 14 2c6.6274 0 12 5.37258 12 12Zm-11.4116 2.9749h-.7173s-1.5826.0835-2.9763-1.1882c-1.51994-1.3872-2.86231-4.1397-2.86231-4.1397s-.07738-.1805.00668-.2677c.09449-.0981.35189-.1044.35189-.1044l1.71464-.0098s.1616.0237.2772.0981c.0953.0614.1488.1762.1488.1762s.2771.6142.6441 1.1699c.7163 1.0849 1.05 1.3222 1.2932 1.2059.3543-.1694.2481-1.5336.2481-1.5336s.0065-.4951-.1784-.7156c-.1432-.1709-.4133-.2207-.5325-.2347-.0965-.0113.0619-.2076.2671-.2957.3086-.1325.8535-.1401 1.4973-.1342.5016.0044.6459.0318.8421.0734.455.0963.4409.4048.4102 1.0706-.0091.199-.0197.4298-.0197.6964 0 .06-.002.1239-.0041.1897-.0106.341-.0228.7314.2333.8765.1313.0742.4525.0111 1.256-1.1847.3809-.5667.6665-1.2331.6665-1.2331s.0624-.1187.1593-.1697c.0992-.052.233-.036.233-.036l1.8043-.0099s.5422-.0566.63.1578c.092.2252-.2027.7509-.9398 1.612-.6954.8123-1.0357 1.1143-1.0089 1.3792.0199.1962.2411.3721.6687.72.8882.7225 1.1249 1.1019 1.1812 1.1921a.44744.44744 0 0 0 .0103.0162c.3975.5777-.4408.623-.4408.623l-1.6025.0195s-.3444.0599-.7976-.213c-.237-.1426-.4688-.3754-.6895-.5972-.3375-.3391-.6495-.6526-.9157-.5786-.4467.1242-.4326.9678-.4326.9678s.0032.1802-.0986.2761c-.1106.1045-.3273.1254-.3273.1254Z" fill="#FCFCFC"/><path d="M14 24C8.47715 24 4 19.5228 4 14H0c0 7.732 6.26801 14 14 14v-4Zm10-10c0 5.5228-4.4772 10-10 10v4c7.732 0 14-6.268 14-14h-4ZM14 4c5.5228 0 10 4.47715 10 10h4c0-7.73199-6.268-14-14-14v4Zm0-4C6.26801 0 0 6.26801 0 14h4C4 8.47715 8.47715 4 14 4V0Z" fill="#FCFCFC" fill-opacity=".3"/></svg>

<svg width="28" height="28" viewBox="0 0 28 28" fill="none" xmlns="http://www.w3.org/2000/svg">
<path fill-rule="evenodd" clip-rule="evenodd" d="M26 14C26 20.6274 20.6274 26 14 26C7.37258 26 2 20.6274 2 14C2 7.37258 7.37258 2 14 2C20.6274 2 26 7.37258 26 14ZM14.5884 16.9749H13.8711C13.8711 16.9749 12.2885 17.0584 10.8948 15.7867C9.37486 14.3995 8.03249 11.647 8.03249 11.647C8.03249 11.647 7.95511 11.4665 8.03917 11.3793C8.13366 11.2812 8.39106 11.2749 8.39106 11.2749L10.1057 11.2651C10.1057 11.2651 10.2673 11.2888 10.3829 11.3632C10.4782 11.4246 10.5317 11.5394 10.5317 11.5394C10.5317 11.5394 10.8088 12.1536 11.1758 12.7093C11.8921 13.7942 12.2258 14.0315 12.469 13.9152C12.8233 13.7458 12.7171 12.3816 12.7171 12.3816C12.7171 12.3816 12.7236 11.8865 12.5387 11.666C12.3955 11.4951 12.1254 11.4453 12.0062 11.4313C11.9097 11.42 12.0681 11.2237 12.2733 11.1356C12.5819 11.0031 13.1268 10.9955 13.7706 11.0014C14.2722 11.0058 14.4165 11.0332 14.6127 11.0748C15.0677 11.1711 15.0536 11.4796 15.0229 12.1454C15.0138 12.3444 15.0032 12.5752 15.0032 12.8418C15.0032 12.9018 15.0012 12.9657 14.9991 13.0315C14.9885 13.3725 14.9763 13.7629 15.2324 13.908C15.3637 13.9822 15.6849 13.9191 16.4884 12.7233C16.8693 12.1566 17.1549 11.4902 17.1549 11.4902C17.1549 11.4902 17.2173 11.3715 17.3142 11.3205C17.4134 11.2685 17.5472 11.2845 17.5472 11.2845L19.3515 11.2746C19.3515 11.2746 19.8937 11.218 19.9815 11.4324C20.0735 11.6576 19.7788 12.1833 19.0417 13.0444C18.3463 13.8567 18.006 14.1587 18.0328 14.4236C18.0527 14.6198 18.2739 14.7957 18.7015 15.1436C19.5897 15.8661 19.8264 16.2455 19.8827 16.3357C19.8872 16.343 19.8906 16.3484 19.893 16.3519C20.2905 16.9296 19.4522 16.9749 19.4522 16.9749L17.8497 16.9944C17.8497 16.9944 17.5053 17.0543 17.0521 16.7814C16.8151 16.6388 16.5833 16.406 16.3626 16.1842C16.0251 15.8451 15.7131 15.5316 15.4469 15.6056C15.0002 15.7298 15.0143 16.5734 15.0143 16.5734C15.0143 16.5734 15.0175 16.7536 14.9157 16.8495C14.8051 16.954 14.5884 16.9749 14.5884 16.9749Z" fill="#FCFCFC"/>
<path d="M14 24C8.47715 24 4 19.5228 4 14H0C0 21.732 6.26801 28 14 28V24ZM24 14C24 19.5228 19.5228 24 14 24V28C21.732 28 28 21.732 28 14H24ZM14 4C19.5228 4 24 8.47715 24 14H28C28 6.26801 21.732 0 14 0V4ZM14 0C6.26801 0 0 6.26801 0 14H4C4 8.47715 8.47715 4 14 4V0Z" fill="#FCFCFC" fill-opacity="0.3"/>
</svg>
